build/images/announcements.svg

<?xml version="1.0" encoding="utf-8"?>
<svg width="200px" height="200px" viewBox="0 0 200 200" version="1.1" xmlns:xlink="http://www.w3.org/1999/xlink" xmlns="http://www.w3.org/2000/svg">
  <defs>
    <path d="M77.9642 68.4328L77.5619 68.3576C76.7459 68.1982 76.1558 67.4683 76.1558 66.618L76.1558 13.302C76.1558 7.70705 72.5261 2.67863 67.1182 0.766416C61.9613 -1.05284 56.588 0.430007 53.4125 4.54217C46.657 12.7957 39.2312 20.4497 31.2144 27.4222C20.9912 36.2751 11.2094 42.5828 2.22805 46.1503C0.887229 46.6735 0.000924197 47.989 0 49.4568L1.32028e-05 118.208C0.00215206 121.037 1.65038 123.594 4.19187 124.71C12.5592 128.38 21.6012 134.373 31.0152 142.54C39.0925 149.576 46.5722 157.299 53.3736 165.629C55.5826 168.464 58.9592 170.08 62.502 169.997C64.0383 169.99 65.5633 169.73 67.0187 169.227C72.5693 167.341 76.1558 162.494 76.1558 156.895L76.1558 103.393C76.1567 102.53 76.765 101.793 77.5965 101.649L77.9642 101.587C82.1261 100.431 90 95.4871 90 85.0098C90 74.5324 82.1261 69.5881 77.9642 68.4328L77.9642 68.4328L77.9642 68.4328Z" transform="translate(110 0)" id="path_1" />
    <path d="M50 81.5712L50 9.999Q50 9.75354 49.988 9.50837Q49.9759 9.26321 49.9519 9.01893Q49.9278 8.77465 49.8918 8.53184Q49.8558 8.28904 49.8079 8.04829Q49.76 7.80755 49.7003 7.56944Q49.6407 7.33134 49.5694 7.09644Q49.4982 6.86155 49.4155 6.63044Q49.3328 6.39932 49.2389 6.17255Q49.1449 5.94577 49.04 5.72388Q48.935 5.50198 48.8193 5.2855Q48.7036 5.06903 48.5774 4.85849Q48.4512 4.64795 48.3149 4.44385Q48.1785 4.23976 48.0323 4.0426Q47.886 3.84545 47.7303 3.6557Q47.5746 3.46596 47.4098 3.28408Q47.2449 3.10221 47.0714 2.92864Q46.8978 2.75507 46.7159 2.59023Q46.534 2.42539 46.3443 2.26967Q46.1545 2.11395 45.9574 1.96773Q45.7602 1.82151 45.5561 1.68514Q45.352 1.54876 45.1415 1.42257Q44.931 1.29638 44.7145 1.18067Q44.498 1.06496 44.2761 0.960011Q44.0542 0.855062 43.8274 0.761128Q43.6007 0.667194 43.3696 0.584501Q43.1384 0.501807 42.9036 0.430553Q42.6687 0.3593 42.4306 0.299657Q42.1924 0.240015 41.9517 0.192128Q41.711 0.144241 41.4682 0.108224Q41.2253 0.0722074 40.9811 0.0481479Q40.7368 0.0240885 40.4916 0.0120442Q40.2465 0 40.001 0L9.999 0C4.47671 0 0 4.47671 0 9.999C0 42.3796 0 142.285 0 142.285C0 148.203 4.79696 152.999 10.7143 152.999C10.7143 152.999 34.1295 152.999 34.1295 152.999C38.6401 153.037 42.9142 150.985 45.7054 147.441C48.5723 143.767 49.4424 138.915 48.0313 134.473C47.308 132.16 46.4107 129.562 45.4554 126.799C41.9241 116.576 37.2679 110.25 36.0268 95.8524C43.7925 95.6823 49.9996 89.3385 50 81.5712L50 81.5712Z" transform="translate(45 47)" id="path_2" />
    <path d="M7.5 17L7.5 17.2888C7.48894 19.0926 6.79111 20.834 5.5312 22.2019L5.53125 22.2238C3 25.015 0 30.0113 0 38C0 45.2406 2.48437 50.3506 5.475 53.7106C6.78713 55.2012 7.503 57.0711 7.5 59L7.5 59C7.5 66.7319 14.2157 73 22.5 73L30 73L30 0L22.5 0C14.2157 0 7.5 9.26802 7.5 17L7.5 17L7.5 17Z" transform="translate(0 47)" id="path_3" />
    <clipPath id="clip_1">
      <use xlink:href="#path_1" />
    </clipPath>
    <clipPath id="clip_2">
      <use xlink:href="#path_2" />
    </clipPath>
    <clipPath id="clip_3">
      <use xlink:href="#path_3" />
    </clipPath>
  </defs>
  <g id="Megaphone">
    <g id="path_3">
      <g clip-path="url(#clip_1)">
        <use xlink:href="#path_1" fill="none" stroke="#323232" stroke-width="20" />
      </g>
    </g>
    <g id="path_4">
      <g clip-path="url(#clip_2)">
        <use xlink:href="#path_2" fill="none" stroke="#323232" stroke-width="20" />
      </g>
    </g>
    <g id="path_2">
      <g clip-path="url(#clip_3)">
        <use xlink:href="#path_3" fill="none" stroke="#323232" stroke-width="20" />
      </g>
    </g>
  </g>
</svg>

<svg width="200" height="200" xmlns:xlink="http://www.w3.org/1999/xlink" xmlns="http://www.w3.org/2000/svg"><defs><clipPath id="d"><use xlink:href="#a"/></clipPath><clipPath id="e"><use xlink:href="#b"/></clipPath><clipPath id="f"><use xlink:href="#c"/></clipPath><path d="M78 68.4h-.4c-.9-.2-1.4-1-1.4-1.8V13.3c0-5.6-3.7-10.6-9-12.5a12 12 0 0 0-13.8 3.7c-6.7 8.3-14.2 16-22.2 23-10.2 8.8-20 15-29 18.7A3.5 3.5 0 0 0 0 49.5v68.7a7 7 0 0 0 4.2 6.5c8.4 3.7 17.4 9.7 26.8 17.8 8 7 15.6 14.8 22.4 23.1 2.2 2.9 5.6 4.5 9.1 4.4 1.5 0 3-.3 4.5-.8a13 13 0 0 0 9.2-12.3v-53.5c0-.9.6-1.6 1.4-1.8h.4A17 17 0 0 0 90 85a17 17 0 0 0-12-16.6Z" transform="translate(110)" id="a"/><path d="M50 81.6V9l-.1-.5V8l-.2-.4-.1-.5-.2-.5-.2-.4q0-.3-.2-.5l-.2-.4-.2-.4-.3-.5L48 4l-.3-.3-.3-.4-.3-.4-.4-.3-.4-.3L46 2l-.4-.3-.5-.3-.4-.2-.4-.2-.5-.2-.4-.2-.5-.2-.5-.1-.4-.1h-.5L41 0H10A10 10 0 0 0 0 10v132.3c0 5.9 4.8 10.7 10.7 10.7h23.4c4.5 0 8.8-2 11.6-5.6 2.9-3.6 3.7-8.5 2.3-13l-2.5-7.6c-3.6-10.2-8.2-16.5-9.5-31 7.8-.1 14-6.5 14-14.2Z" transform="translate(45 47)" id="b"/><path d="M7.5 17v.3c0 1.8-.7 3.5-2 4.9A22.7 22.7 0 0 0 0 38a23 23 0 0 0 5.5 15.7 8 8 0 0 1 2 5.3c0 7.7 6.7 14 15 14H30V0h-7.5c-8.3 0-15 9.3-15 17Z" transform="translate(0 47)" id="c"/></defs><g clip-path="url(#d)"><use xlink:href="#a" fill="none" stroke="#323232" stroke-width="20"/></g><g clip-path="url(#e)"><use xlink:href="#b" fill="none" stroke="#323232" stroke-width="20"/></g><g clip-path="url(#f)"><use xlink:href="#c" fill="none" stroke="#323232" stroke-width="20"/></g></svg>
